X:354
T:Rose Tree
M:4/4
L:1/8
K:D
fe|d2B2A2F2|ABAF A2F2|d2d2fede|f2e2e2fe|
d2B2A2F2|ABAF A2A2|d2cd e2de|f2d2d2:|
de|f2e2f2g2|a2ba g2f2|e2b2b2a2|b2e2e2fe|
d2B2A2F2|ABAF A2A2|d2cd e2de|f2d2d2:|
